X:1
T:That Window in the Skies
T:That Window in the Skies
T:Mrs. W. E. Lyon
T:C. H. Gootee, 1906
T:Public Domain Courtesy of the Cyber Hymnal™
T:Public Domain Courtesy of the Cyber Hymnal™
C:Mrs. W. E. Lyon
Z:Public Domain
Z:Courtesy of the Cyber Hymnal™
%%score ( 1 2 ) ( 3 4 )
L:1/8
Q:1/4=90
M:4/4
K:Eb
V:1 treble 
V:2 treble 
V:3 bass 
V:4 bass 
V:1
 [EG]>[FA] | [GB]>[GB] [Ac][Ac] [GB]2 [EG][EG] | [FA]>[=EG] [FA][DB] [_EG]2 [EG]2 | %3
w: 1.~I have|heard some peo- ple say, Who are|in the nar- row way, That|
w: 2.~They have|loss- es but no gain, And their|heart is full of pain, When|
w: 3.~There’s the|hea- then need the Word, The glad|news they’ve ne- ver heard, These|
 [EG][EG][EG][EG] [E=A][EA][EG][EF] | [DB]6 [EG]>[FA] | [GB]>[GB] [Ac][Ac] [GB]2 [EG][EG] | %6
w: they are trust- ing Je- sus now for|all; They have|land and hous- es, too, But God’s|
w: busi- ness will not go just as it|should; O so|lit- tle they can give, For it|
w: stin- gy peo- ple keep from God His|tithes; And their|heart is cold and lone, There’s no|
 [FA]>[=EG] [FA][DB] [_EG]2 [GB][GB] | [Ac]>[Bd] [ce]>[Bd] [GB]<[EG] [DF]>E | E6 || %9
w: tithes are o- ver- due, And the|bless- ings they re- ceive are ve- ry|small.|
w: takes it all to live, They would|like to do such great things if they|could.|
w: mu- sic in their tone, And they|oft- en wipe the tear- drops from their|eyes.|
"^Refrain" [EG]>[FA] | [GB]>[Ac] [GB]>[EG] E2 [EG]>[GB] | [Ac]>[Ac] [Ae]>[Ac] [GB]2 [EG]>[FA] | %12
w: |||
w: There’s a|wind- ow in the skies That will|bright- en up your eyes; There’s a|
w: |||
 [GB]>[GB] [GB]>[GB] e>B G>E | [EF]>[EF] [E=A]>[EA] !fermata![DB]2 [EG]>[F_A] | %14
w: ||
w: win- dow God will o- pen When you|bring in all your tithes; There’s a|
w: ||
 [GB]>[Ac] [GB]>[EG] [Ge]2 [Ge][Ge] | [Af]<[Ae] [Ae]>[Ac] [GB]2 [GB]2 | %16
w: ||
w: win- dow in the skies That will|fill you with sur- prise; That|
w: ||
 [Ac]>[Ad] [Ae]>[Ac] [GB]<!fermata![Ge] E>[EF] | [EG]>[CE] [DF]>E [B,E]2 |] %18
w: ||
w: win- dow God will o- pen When you|bring in all your tithes.|
w: ||
V:2
 x2 | x8 | x8 | x8 | x8 | x8 | x8 | x8 | x6 || x2 | x4 E2 x2 | x8 | x4 e>B G>E | x8 | x8 | x8 | %16
 x6 E3/2 x/ | x7/2 E/ x2 |] %18
V:3
 [E,B,]>[E,B,] | [E,E]>[E,E] [E,E][E,E] [E,E]2 [E,B,][E,B,] | %2
 [B,,B,]>[B,,B,] [B,,B,][B,,B,] [E,B,]2 [E,B,]2 | %3
 [F,B,][F,B,][F,B,][F,B,] [F,C][F,C][F,B,][F,=A,] | [B,,B,]6 [E,B,]>[E,B,] | %5
 [E,E]>[E,E] [E,E][E,E] [E,E]2 [E,B,][E,B,] | [B,,B,]>[B,,B,] [B,,B,][B,,B,] [E,B,]2 [E,E][E,E] | %7
 [A,E]>[A,E] [A,E]>[A,E] [B,E]<B, [B,,A,]>[E,G,] | [E,G,]6 || [E,B,]>[E,B,] | %10
 [E,E]>[E,E] [E,E]>[E,B,] [E,G,]2 [E,B,]>[E,E] | [A,E]>[A,E] [A,C]>[A,E] [E,E]2 [E,B,]>[E,B,] | %12
 [E,E]>[E,E] [E,E]>[E,E] E>B, G,>E, | [F,=A,]>[F,A,] [F,C]>[F,C] !fermata![B,,B,]2 [E,B,]>[E,B,] | %14
 [E,E]>[E,E] [E,E]>[E,B,] [E,B,]2 [E,_D][E,D] | [A,C]<[A,C] [A,C]>[G,E] [E,E]2 [E,E]2 | %16
 [A,,E]>[A,,D] [A,,C]>[A,,C] [E,C]<!fermata![E,B,] [G,,B,]>[A,,C] | %17
 [B,,B,]>[B,,G,] [B,,A,]>[E,G,] [E,G,]2 |] %18
V:4
 x2 | x8 | x8 | x8 | x8 | x8 | x8 | x8 | x6 || x2 | x8 | x8 | x6 G,>E, | x8 | x8 | x8 | x8 | x6 |] %18

